X: 38
T: Fiddle 'Til Dawn
C: Mike Richardson
O: Seattle, Washington
%R: reel
Z: Collected and edited 2014 by John Chambers <jc:trillian.mit.edu>
B: GEMS The Best of the Country Dance and Song Society Diamond Jubilee Music, Dance and Song Contest 1993 p.67 #2
N: The G chord in bar 2 is a bit odd.
M: C|
L: 1/8
K: G
% - - - - - - - - - - - - - - - - - - - - - - - - -
|:\
"G"G2BG "C"EFGE | "G"DFAc "C"BAGF | "G"GABc "Em"dBed | "Am"cBAG "D"FADF |
"G"G2BG "C"EFGE | "D"DFAc "G"BAGF | "G"GABc "C"dBec | "D"AEFD [1 "G"G3 F :|2 "G"GDEF ||
|:\
"G"GABc "Em"dBed | "C"cAdc "G"BGcB | "B7"AFBA "Em"GEAG | "A"FGEF "D"DCB,A, |
"G"B,A,B,C DG,A,B, | "C"CDEF GABc | "G"dBed "C"cBAG | "D"FDEF "G"HG3 F :|
% - - - - - - - - - - - - - - - - - - - - - - - - -

